X: 11
T: The Glen Cottage Polkas No. 2
M: 2/4
L: 1/8
R: polka
K: A Dorian
|: B/d/ |\ 
eA AB/d/ | ed Bd | eA AB/A/ | G>A Bd |
eA AB/d/ | ed Bd | e/f/g/e/ dB | BA A :|
|: B/d/ |\ 
e2 ef/g/ | ae fe | d2 de/f/ | ge fd |
e2 ef/g/ | ae fd | ea  e/f/e/d/ | BA A :|
